X:3487
L:1/8
Q:1/2=100
M:4/4
K:D
 AB/c/ | d2 d2 d2 e2 | fefg f2 A2 | BABc B2 AG | AGAB A2 GF | G2 G2 G2 FE | FEFG F2 A2 | 
 c2 de de f2 | ^GFGA G2 e2 | c2 BA B2 A^G | A6 || ec/d/ | e2 e2 efde | fefg fdcd | e2 dc d2 cB | 
 ^A2 F2 F^G^AB | cBcd c2 d2 | ^A^GAB A2 B2 | c2 dB ^A3 B | (B6 A)B/c/ | d2 d2 d2 e2 | fefg f2 A2 | 
 BABc B2 e2 | c2 Bc Afef | gfga gede | fefg fgfg | aBdg e3 d | d6 |]

